X: 674
T: Runing Footmans Jigg
M:6/4
L:1/4
S: 8: MCJLSH3 http://www.cpartington.plus.com/links/Walsh.abc
Z: Pete Stewart 2004
B: Walsh "Third Book of the most Celebrated jiggs, Lancashire hornpipes, ..."
K:D
A | d>cBA>GF | E>FGF>ED | DFADFA | DFAA2A | dAddAd | dAdc3 | d>cBA>GF | Eecd2 ||
cdeefe | edcB2A | AceAce | EA^GA3 | d>cBA>GF | E>edc>BA | dfaefd | eAcd3 ||

%%sep 1 1 500
%%sep 1 1 500
